X: 6
T: The Lark In The Morning
R: jig
M: 6/8
L: 1/8
K: Dmaj
A|:AFA AFA|BGB Bcd|AFA Ade|fed Bcd|
AFA AFA|BGB B2A|def afd|edB B2A:|
|:def a2a|baf afe| def afd|edBB2A|
def a2a|baf a2f|gfe fed| edBB2A:|
|:def fef|fef fef|def fed|edBB2A|
def fef|feff2f|gfe fed|edBB2A:|
|:Add fdd|edd fdd|Add fed|edBB2A|
Add fdd|eddf2f|gfe fed|edBB2A:|


Tune 62	Setting 21312

